resources/haticons/SVG/dashboard_customize.svg

<!-- Generated by IcoMoon.io -->
<svg version="1.1" xmlns="http://www.w3.org/2000/svg" width="24" height="24" viewBox="0 0 24 24">
<title>dashboard_customize</title>
<path d="M18 12.984v3h3v2.016h-3v3h-2.016v-3h-3v-2.016h3v-3h2.016zM3 12.984h8.016v8.016h-8.016v-8.016zM12.984 3h8.016v8.016h-8.016v-8.016zM3 3h8.016v8.016h-8.016v-8.016z"></path>
</svg>

<svg xmlns="http://www.w3.org/2000/svg" width="24" height="24"><path d="M18 12.984v3h3V18h-3v3h-2.016v-3h-3v-2.016h3v-3H18zm-15 0h8.016V21H3v-8.016zM12.984 3H21v8.016h-8.016V3zM3 3h8.016v8.016H3V3z"/></svg>
